X:4029
T:Marseillaise Hornpipe
O:england
N:IrTrad, 6/99. Jeffrey Erickson stated: "I'm not saying
N:it's a favorite, and it surely isn't good music, but a
N:while back, in a fit of madness or maybe indigestion,
N:I wrote it"(Quote from IrTrad-L)
M:4/4
L:1/8
Q:160
C:C. J. Rouget de Lisle, with help(?) from J. Erickson
R:hornpipe
K:GMaj
(3DEF|: GF GB AF Ac|(3ddd dB GG BG|E2 (3cBd c2 AF
|1 G2 {A}GF G2 (3DEF :|2 G2 {A}GF G2 (3dcA||
B2 {c}BA BG (3dBG|BA (3A^GB A2 AB|c2 {d}cB ce dc|
(3BBc (3BGE D2 (3d^ce|dD GB dD (3GFE|D2 {E}D^C D2 D/2E/2F/2G/2|A2 (3BA^G
AD (3DEF|G2 {A}GF G2||


